src/assets/instrucoes.svg

<svg width="24" height="24" xmlns="http://www.w3.org/2000/svg">

 <g>
  <title>background</title>
  <rect fill="none" id="canvas_background" height="402" width="582" y="-1" x="-1"/>
 </g>
 <g>
  <title>Layer 1</title>
  <g display="none" id="Header_x2F_BG">
   <rect id="svg_1" height="520" width="520" fill="#86c540" y="-270" x="-50"/>
  </g>
  <g id="Bounding_Boxes">
   <g id="ui_x5F_spec_x5F_header_copy_3"/>
   <path id="svg_2" d="m0,0l24,0l0,24l-24,0l0,-24z" fill="none"/>
  </g>
  <g display="none" id="Rounded">
   <g display="inline" id="ui_x5F_spec_x5F_header_copy_5"/>
   <path id="svg_3" d="m11.5,2c-4.69,0 -8.5,3.81 -8.5,8.5s3.81,8.5 8.5,8.5l0.5,0l0,3c4.86,-2.34 8,-7 8,-11.5c0,-4.69 -3.81,-8.5 -8.5,-8.5zm1,14.5l-2,0l0,-2l2,0l0,2zm0.4,-4.78c-0.01,0.01 -0.02,0.03 -0.03,0.05c-0.05,0.08 -0.1,0.16 -0.14,0.24c-0.02,0.03 -0.03,0.07 -0.04,0.11c-0.03,0.07 -0.06,0.14 -0.08,0.21c-0.07,0.21 -0.1,0.43 -0.1,0.68l-0.87,0l0,0l-1.14,0c0,-0.51 0.08,-0.94 0.2,-1.3c0,-0.01 0,-0.02 0.01,-0.03c0.01,-0.04 0.04,-0.06 0.05,-0.1c0.06,-0.16 0.13,-0.3 0.22,-0.44c0.03,-0.05 0.07,-0.1 0.1,-0.15c0.03,-0.04 0.05,-0.09 0.08,-0.12l0.01,0.01c0.84,-1.1 2.21,-1.44 2.32,-2.68c0.09,-0.98 -0.61,-1.93 -1.57,-2.13c-1.04,-0.22 -1.98,0.39 -2.3,1.28c-0.14,0.36 -0.47,0.65 -0.88,0.65l-0.2,0c-0.6,0 -1.04,-0.59 -0.87,-1.17c0.55,-1.82 2.37,-3.09 4.43,-2.79c1.69,0.25 3.04,1.64 3.33,3.33c0.44,2.44 -1.63,3.03 -2.53,4.35z"/>
  </g>
  <g display="none" id="Sharp">
   <g display="inline" id="ui_x5F_spec_x5F_header_copy_4"/>
   <path id="svg_4" d="m11.5,2c-4.69,0 -8.5,3.81 -8.5,8.5s3.81,8.5 8.5,8.5l0.5,0l0,3c4.86,-2.34 8,-7 8,-11.5c0,-4.69 -3.81,-8.5 -8.5,-8.5zm1,14.5l-2,0l0,-2l2,0l0,2zm0,-3.5l-2,0c0,-3.25 3,-3 3,-5c0,-1.1 -0.9,-2 -2,-2s-2,0.9 -2,2l-2,0c0,-2.21 1.79,-4 4,-4s4,1.79 4,4c0,2.5 -3,2.75 -3,5z"/>
  </g>
  <g id="Outline">
   <g id="ui_x5F_spec_x5F_header"/>
   <g id="svg_5">
    <path fill="#86c540" id="svg_6" d="m11,23.59l0,-3.6c-5.01,-0.26 -9,-4.42 -9,-9.49c0,-5.24 4.26,-9.5 9.5,-9.5s9.5,4.26 9.5,9.5c0,4.95 -3.44,9.93 -8.57,12.4l-1.43,0.69zm0.5,-20.59c-4.14,0 -7.5,3.36 -7.5,7.5s3.36,7.5 7.5,7.5l1.5,0l0,2.3c3.64,-2.3 6,-6.08 6,-9.8c0,-4.14 -3.36,-7.5 -7.5,-7.5z"/>
    <rect fill="#86c540" id="svg_7" height="2" width="2" y="14.5" x="10.5"/>
    <path fill="#86c540" id="svg_8" d="m12.5,13l-2,0c0,-3.25 3,-3 3,-5c0,-1.1 -0.9,-2 -2,-2s-2,0.9 -2,2l-2,0c0,-2.21 1.79,-4 4,-4s4,1.79 4,4c0,2.5 -3,2.75 -3,5z"/>
   </g>
  </g>
  <g display="none" id="Duotone">
   <g display="inline" id="ui_x5F_spec_x5F_header_copy_2"/>
   <g id="svg_9" display="inline">
    <path id="svg_10" d="m11.5,3c-4.14,0 -7.5,3.36 -7.5,7.5s3.36,7.5 7.5,7.5l1.5,0l0,2.3c3.64,-2.3 6,-6.08 6,-9.8c0,-4.14 -3.36,-7.5 -7.5,-7.5zm1,13.5l-2,0l0,-2l2,0l0,2zm0,-3.5l-2,0c0,-3.25 3,-3 3,-5c0,-1.1 -0.9,-2 -2,-2s-2,0.9 -2,2l-2,0c0,-2.21 1.79,-4 4,-4s4,1.79 4,4c0,2.5 -3,2.75 -3,5z" opacity="0.3"/>
    <g id="svg_11">
     <path id="svg_12" d="m11.5,1c-5.24,0 -9.5,4.26 -9.5,9.5c0,5.07 3.99,9.23 9,9.49l0,3.6l1.43,-0.69c5.13,-2.47 8.57,-7.45 8.57,-12.4c0,-5.24 -4.26,-9.5 -9.5,-9.5zm1.5,19.3l0,-2.3l-1.5,0c-4.14,0 -7.5,-3.36 -7.5,-7.5s3.36,-7.5 7.5,-7.5s7.5,3.36 7.5,7.5c0,3.73 -2.36,7.51 -6,9.8z"/>
     <rect id="svg_13" height="2" width="2" y="14.5" x="10.5"/>
     <path id="svg_14" d="m11.5,4c-2.21,0 -4,1.79 -4,4l2,0c0,-1.1 0.9,-2 2,-2s2,0.9 2,2c0,2 -3,1.75 -3,5l2,0c0,-2.25 3,-2.5 3,-5c0,-2.21 -1.79,-4 -4,-4z"/>
    </g>
   </g>
  </g>
  <g display="none" id="Fill">
   <g display="inline" id="ui_x5F_spec_x5F_header_copy"/>
   <path id="svg_15" d="m11.5,2c-4.69,0 -8.5,3.81 -8.5,8.5s3.81,8.5 8.5,8.5l0.5,0l0,3c4.86,-2.34 8,-7 8,-11.5c0,-4.69 -3.81,-8.5 -8.5,-8.5zm1,14.5l-2,0l0,-2l2,0l0,2zm0,-3.5l-2,0c0,-3.25 3,-3 3,-5c0,-1.1 -0.9,-2 -2,-2s-2,0.9 -2,2l-2,0c0,-2.21 1.79,-4 4,-4s4,1.79 4,4c0,2.5 -3,2.75 -3,5z"/>
  </g>
  <g display="none" id="nyt_x5F_exporter_x5F_info"/>
 </g>
</svg>

<?xml version="1.0" encoding="utf-8"?>
<!-- Generator: Adobe Illustrator 19.1.0, SVG Export Plug-In . SVG Version: 6.00 Build 0)  -->
<svg version="1.1" xmlns="http://www.w3.org/2000/svg" xmlns:xlink="http://www.w3.org/1999/xlink" x="0px" y="0px" width="24px"
	 height="24px" viewBox="0 0 24 24" enable-background="new 0 0 24 24" xml:space="preserve">
<g id="Header_x2F_BG" display="none">
	<rect x="-50" y="-270" display="inline" fill="#F1F1F2" width="520" height="520"/>
</g>
<g id="Bounding_Boxes">
	<g id="ui_x5F_spec_x5F_header_copy_3">
	</g>
	<path fill="none" d="M0,0h24v24H0V0z"/>
</g>
<g id="Rounded" display="none">
	<g id="ui_x5F_spec_x5F_header_copy_5" display="inline">
	</g>
	<path display="inline" d="M11.5,2C6.81,2,3,5.81,3,10.5S6.81,19,11.5,19H12v3c4.86-2.34,8-7,8-11.5C20,5.81,16.19,2,11.5,2z
		 M12.5,16.5h-2v-2h2V16.5z M12.9,11.72c-0.01,0.01-0.02,0.03-0.03,0.05c-0.05,0.08-0.1,0.16-0.14,0.24
		c-0.02,0.03-0.03,0.07-0.04,0.11c-0.03,0.07-0.06,0.14-0.08,0.21c-0.07,0.21-0.1,0.43-0.1,0.68h-0.87h0H10.5
		c0-0.51,0.08-0.94,0.2-1.3c0-0.01,0-0.02,0.01-0.03c0.01-0.04,0.04-0.06,0.05-0.1c0.06-0.16,0.13-0.3,0.22-0.44
		c0.03-0.05,0.07-0.1,0.1-0.15c0.03-0.04,0.05-0.09,0.08-0.12l0.01,0.01c0.84-1.1,2.21-1.44,2.32-2.68
		c0.09-0.98-0.61-1.93-1.57-2.13c-1.04-0.22-1.98,0.39-2.3,1.28C9.48,7.71,9.15,8,8.74,8h-0.2C7.94,8,7.5,7.41,7.67,6.83
		c0.55-1.82,2.37-3.09,4.43-2.79c1.69,0.25,3.04,1.64,3.33,3.33C15.87,9.81,13.8,10.4,12.9,11.72z"/>
</g>
<g id="Sharp" display="none">
	<g id="ui_x5F_spec_x5F_header_copy_4" display="inline">
	</g>
	<path display="inline" d="M11.5,2C6.81,2,3,5.81,3,10.5S6.81,19,11.5,19H12v3c4.86-2.34,8-7,8-11.5C20,5.81,16.19,2,11.5,2z
		 M12.5,16.5h-2v-2h2V16.5z M12.5,13h-2c0-3.25,3-3,3-5c0-1.1-0.9-2-2-2s-2,0.9-2,2h-2c0-2.21,1.79-4,4-4s4,1.79,4,4
		C15.5,10.5,12.5,10.75,12.5,13z"/>
</g>
<g id="Outline">
	<g id="ui_x5F_spec_x5F_header">
	</g>
	<g>
		<path d="M11,23.59v-3.6c-5.01-0.26-9-4.42-9-9.49C2,5.26,6.26,1,11.5,1S21,5.26,21,10.5c0,4.95-3.44,9.93-8.57,12.4L11,23.59z
			 M11.5,3C7.36,3,4,6.36,4,10.5S7.36,18,11.5,18H13v2.3c3.64-2.3,6-6.08,6-9.8C19,6.36,15.64,3,11.5,3z"/>
		<rect x="10.5" y="14.5" width="2" height="2"/>
		<path d="M12.5,13h-2c0-3.25,3-3,3-5c0-1.1-0.9-2-2-2s-2,0.9-2,2h-2c0-2.21,1.79-4,4-4s4,1.79,4,4C15.5,10.5,12.5,10.75,12.5,13z"
			/>
	</g>
</g>
<g id="Duotone" display="none">
	<g id="ui_x5F_spec_x5F_header_copy_2" display="inline">
	</g>
	<g display="inline">
		<path opacity="0.3" d="M11.5,3C7.36,3,4,6.36,4,10.5S7.36,18,11.5,18H13v2.3c3.64-2.3,6-6.08,6-9.8C19,6.36,15.64,3,11.5,3z
			 M12.5,16.5h-2v-2h2V16.5z M12.5,13h-2c0-3.25,3-3,3-5c0-1.1-0.9-2-2-2s-2,0.9-2,2h-2c0-2.21,1.79-4,4-4s4,1.79,4,4
			C15.5,10.5,12.5,10.75,12.5,13z"/>
		<g>
			<path d="M11.5,1C6.26,1,2,5.26,2,10.5c0,5.07,3.99,9.23,9,9.49v3.6l1.43-0.69C17.56,20.43,21,15.45,21,10.5
				C21,5.26,16.74,1,11.5,1z M13,20.3V18h-1.5C7.36,18,4,14.64,4,10.5S7.36,3,11.5,3S19,6.36,19,10.5C19,14.23,16.64,18.01,13,20.3z
				"/>
			<rect x="10.5" y="14.5" width="2" height="2"/>
			<path d="M11.5,4c-2.21,0-4,1.79-4,4h2c0-1.1,0.9-2,2-2s2,0.9,2,2c0,2-3,1.75-3,5h2c0-2.25,3-2.5,3-5C15.5,5.79,13.71,4,11.5,4z"
				/>
		</g>
	</g>
</g>
<g id="Fill" display="none">
	<g id="ui_x5F_spec_x5F_header_copy" display="inline">
	</g>
	<path display="inline" d="M11.5,2C6.81,2,3,5.81,3,10.5S6.81,19,11.5,19H12v3c4.86-2.34,8-7,8-11.5C20,5.81,16.19,2,11.5,2z
		 M12.5,16.5h-2v-2h2V16.5z M12.5,13h-2c0-3.25,3-3,3-5c0-1.1-0.9-2-2-2s-2,0.9-2,2h-2c0-2.21,1.79-4,4-4s4,1.79,4,4
		C15.5,10.5,12.5,10.75,12.5,13z"/>
</g>
<g id="nyt_x5F_exporter_x5F_info" display="none">
</g>
</svg>
